X: 1
T: The Sleeping Tune  v.1
C: Gordon Duncan
S: http://thesession.org/tunes/7425
S: http://www.newrosspipeband.com/pdf%20tunes/Sleeping%20Tune%20(The).pdf
R: reel
M: 4/4
L: 1/8
K: Bm
[|\
B2 f2- f2 fe | fg gf fe dc | e4 e4- | e2 ed ef dc |\
d4 d4- | d2 dc de dB | c4- cB cd | e4- ef dc |]
[|\
B2 f2- f2 fe | fg gf fe dc | e3 d e4- | e4 ef dc |\
d2 dc d4- | d2 dc de dB | c4- cB cd | e2- ef fe dc |]
[|\
d2 a2- a2 cd | ac da cd dB | c2 a2- a2 cB | c2 cB ce dc |\
B2 a2- a2 BA | B2 BA Bc dB | c3 B c4- | cd de fe dc |]
[|\
d2 a2- a2 cd | ac da cd dB | c2 a2- a2 cB | c2 cB ce dc |\
B2 a2- a2 BA | B4 Bc dB | c4- cd de | e4 ef dc |]

%%sep 1 1 500

